X:141
U: ~ = !turn!
%%topmargin 3cm
T:The Musical Priest
B:Traditional Irish Fiddle Tunes. Randy Miller and Jack Perron.
Z:Transcribed by Ralph Palmer
R:Reel
M:C|
L:1/8
K:Bm
BA | FBBA (3.B.B.B Bd | dBAf ecBA | FB{/c}BA (3.B.B.B Bd | cBAc {Bc}B2 ::
Bc | d2 {/e}dc dfed | cAeg faec | dcBc defb | afec B2 :|]
Bc | dB (3.B.B.B bafb | afec ABce | dB (3.B.B.B bafb | afec B2Bc |
dB (3.B.B.B bafb | afec ABce | dcBc defb | afec B2 |]
